web/packages/design/src/ResourceIcon/assets/okta-light.svg

<svg width="72" height="72" viewBox="0 0 72 72" fill="none" xmlns="http://www.w3.org/2000/svg">
<g clip-path="url(#clip0_7541_35943)">
<path fill-rule="evenodd" clip-rule="evenodd" d="M39.6051 0.5L38.1251 18.74C37.4251 18.66 36.7251 18.62 36.0051 18.62C35.1051 18.62 34.2251 18.68 33.3651 18.82L32.5251 9.98C32.5051 9.7 32.7251 9.46 33.0051 9.46H34.5051L33.7851 0.52C33.7651 0.24 33.9851 0 34.2451 0H39.1451C39.4251 0 39.6451 0.24 39.6051 0.52V0.5ZM27.2451 1.4C27.1651 1.14 26.8851 0.98 26.6251 1.08L22.0251 2.76C21.7651 2.86 21.6451 3.16 21.7651 3.4L25.5051 11.56L24.0851 12.08C23.8251 12.18 23.7051 12.48 23.8251 12.72L27.6451 20.74C29.0251 19.98 30.5251 19.4 32.1051 19.04L27.2651 1.4H27.2451ZM15.9651 6.48L26.5451 21.4C25.2051 22.28 23.9851 23.32 22.9451 24.52L16.6051 18.28C16.4051 18.08 16.4251 17.76 16.6251 17.58L17.7851 16.62L11.4851 10.24C11.2851 10.04 11.3051 9.72 11.5251 9.54L15.2651 6.4C15.4851 6.22 15.7851 6.26 15.9451 6.48H15.9651ZM7.08508 15.12C6.86508 14.96 6.54508 15.04 6.40508 15.28L3.96508 19.52C3.82508 19.76 3.92508 20.06 4.16508 20.18L12.2851 24.02L11.5251 25.32C11.3851 25.56 11.4851 25.88 11.7451 25.98L19.8251 29.68C20.4051 28.18 21.1851 26.78 22.1451 25.52L7.08508 15.12ZM1.10508 26.64C1.14508 26.36 1.42508 26.2 1.68508 26.26L19.3851 30.88C18.9251 32.38 18.6651 33.96 18.6251 35.6L9.76508 34.88C9.48508 34.86 9.28508 34.6 9.34508 34.32L9.60508 32.84L0.66508 32C0.38508 31.98 0.205079 31.72 0.245079 31.44L1.08508 26.62L1.10508 26.64ZM0.445079 38.6C0.165079 38.62 -0.0149205 38.88 0.0250795 39.16L0.88508 43.98C0.92508 44.26 1.20508 44.42 1.46508 44.36L10.1451 42.1L10.4051 43.58C10.4451 43.86 10.7251 44.02 10.9851 43.96L19.5451 41.6C19.0451 40.12 18.7251 38.54 18.6451 36.92L0.425079 38.6H0.445079ZM3.28508 51.28C3.14508 51.04 3.24508 50.74 3.48508 50.62L20.0051 42.78C20.6251 44.26 21.4651 45.64 22.4651 46.88L15.2251 52.04C15.0051 52.2 14.6851 52.14 14.5451 51.9L13.7851 50.58L6.40508 55.68C6.18508 55.84 5.86508 55.76 5.72508 55.52L3.26508 51.28H3.28508ZM23.3051 47.84L10.4451 60.86C10.2451 61.06 10.2651 61.38 10.4851 61.56L14.2451 64.7C14.4651 64.88 14.7651 64.84 14.9251 64.62L20.1251 57.3L21.2851 58.28C21.5051 58.46 21.8251 58.42 21.9851 58.18L27.0251 50.86C25.6651 50.02 24.4051 49 23.3251 47.84H23.3051ZM20.7651 68.74C20.5051 68.64 20.3851 68.34 20.5051 68.1L28.1251 51.46C29.5251 52.18 31.0451 52.72 32.6251 53.02L30.3851 61.62C30.3251 61.88 30.0251 62.04 29.7651 61.94L28.3451 61.42L25.9651 70.08C25.8851 70.34 25.6051 70.5 25.3451 70.4L20.7451 68.72L20.7651 68.74ZM33.8851 53.24L32.4051 71.48C32.3851 71.76 32.6051 72 32.8651 72H37.7651C38.0451 72 38.2651 71.76 38.2251 71.48L37.5051 62.54H39.0051C39.2851 62.54 39.5051 62.3 39.4851 62.02L38.6451 53.18C37.7851 53.32 36.9051 53.38 36.0051 53.38C35.2851 53.38 34.5851 53.34 33.8851 53.24ZM51.5251 3.86C51.6451 3.6 51.5251 3.32 51.2651 3.22L46.6651 1.54C46.4051 1.44 46.1251 1.6 46.0451 1.86L43.6651 10.52L42.2451 10C41.9851 9.9 41.7051 10.06 41.6251 10.32L39.3851 18.92C40.9851 19.24 42.4851 19.78 43.8851 20.48L51.5251 3.86ZM61.5651 11.12L48.7051 24.14C47.6251 22.98 46.3851 21.96 45.0051 21.12L50.0451 13.8C50.2051 13.58 50.5251 13.52 50.7451 13.7L51.9051 14.68L57.1051 7.36C57.2651 7.14 57.5851 7.1 57.7851 7.28L61.5451 10.42C61.7651 10.6 61.7651 10.92 61.5851 11.12H61.5651ZM68.5251 21.36C68.7851 21.24 68.8651 20.94 68.7251 20.7L66.2651 16.46C66.1251 16.22 65.8051 16.16 65.5851 16.3L58.2051 21.4L57.4451 20.1C57.3051 19.86 56.9851 19.78 56.7651 19.96L49.5251 25.12C50.5251 26.36 51.3451 27.74 51.9851 29.22L68.5051 21.38L68.5251 21.36ZM71.1251 28L71.9651 32.82C72.0051 33.1 71.8251 33.34 71.5451 33.38L53.3251 35.08C53.2451 33.44 52.9251 31.88 52.4251 30.4L60.9851 28.04C61.2451 27.96 61.5251 28.14 61.5651 28.42L61.8251 29.9L70.5051 27.64C70.7651 27.58 71.0451 27.74 71.0851 28.02L71.1251 28ZM70.3051 45.7C70.5651 45.76 70.8451 45.6 70.8851 45.32L71.7251 40.5C71.7651 40.22 71.5851 39.98 71.3051 39.94L62.3651 39.1L62.6251 37.62C62.6651 37.34 62.4851 37.1 62.2051 37.06L53.3451 36.34C53.3051 37.98 53.0451 39.56 52.5851 41.06L70.2851 45.68L70.3051 45.7ZM65.5851 56.7C65.4451 56.94 65.1251 57 64.9051 56.86L49.8451 46.46C50.8051 45.2 51.5851 43.8 52.1651 42.3L60.2451 46C60.5051 46.12 60.6051 46.42 60.4651 46.66L59.7051 47.96L67.8251 51.8C68.0651 51.92 68.1651 52.22 68.0251 52.46L65.5851 56.7ZM45.4451 50.56L56.0251 65.48C56.1851 65.7 56.5051 65.74 56.7051 65.56L60.4451 62.42C60.6651 62.24 60.6651 61.92 60.4851 61.72L54.1851 55.34L55.3451 54.38C55.5651 54.2 55.5651 53.88 55.3651 53.68L49.0251 47.44C47.9651 48.64 46.7651 49.7 45.4251 50.56H45.4451ZM45.3451 70.88C45.0851 70.98 44.8051 70.82 44.7251 70.56L39.8851 52.92C41.4651 52.56 42.9651 51.98 44.3451 51.22L48.1651 59.24C48.2851 59.5 48.1651 59.8 47.9051 59.88L46.4851 60.4L50.2251 68.56C50.3451 68.82 50.2251 69.1 49.9651 69.2L45.3651 70.88H45.3451Z" fill="black"/>
</g>
<defs>
<clipPath id="clip0_7541_35943">
<rect width="72" height="72" fill="white"/>
</clipPath>
</defs>
</svg>

<svg xmlns="http://www.w3.org/2000/svg" width="72" height="72" fill="none" viewBox="0 0 72 72"><g clip-path="url(#a)"><path fill="#000" fill-rule="evenodd" d="m39.605.5-1.48 18.24c-.7-.08-1.4-.12-2.12-.12-.9 0-1.78.06-2.64.2l-.84-8.84c-.02-.28.2-.52.48-.52h1.5l-.72-8.94c-.02-.28.2-.52.46-.52h4.9c.28 0 .5.24.46.52zm-12.36.9c-.08-.26-.36-.42-.62-.32l-4.6 1.68c-.26.1-.38.4-.26.64l3.74 8.16-1.42.52c-.26.1-.38.4-.26.64l3.82 8.02c1.38-.76 2.88-1.34 4.46-1.7L27.265 1.4zm-11.28 5.08 10.58 14.92c-1.34.88-2.56 1.92-3.6 3.12l-6.34-6.24c-.2-.2-.18-.52.02-.7l1.16-.96-6.3-6.38c-.2-.2-.18-.52.04-.7l3.74-3.14c.22-.18.52-.14.68.08zm-8.88 8.64c-.22-.16-.54-.08-.68.16l-2.44 4.24c-.14.24-.04.54.2.66l8.12 3.84-.76 1.3a.46.46 0 0 0 .22.66l8.08 3.7c.58-1.5 1.36-2.9 2.32-4.16zm-5.98 11.52c.04-.28.32-.44.58-.38l17.7 4.62c-.46 1.5-.72 3.08-.76 4.72l-8.86-.72a.462.462 0 0 1-.42-.56l.26-1.48L.665 32c-.28-.02-.46-.28-.42-.56l.84-4.82zM.445 38.6c-.28.02-.46.28-.42.56l.86 4.82c.04.28.32.44.58.38l8.68-2.26.26 1.48c.04.28.32.44.58.38l8.56-2.36c-.5-1.48-.82-3.06-.9-4.68L.425 38.6zm2.84 12.68a.473.473 0 0 1 .2-.66l16.52-7.84c.62 1.48 1.46 2.86 2.46 4.1l-7.24 5.16a.47.47 0 0 1-.68-.14l-.76-1.32-7.38 5.1c-.22.16-.54.08-.68-.16l-2.46-4.24zm20.02-3.44-12.86 13.02c-.2.2-.18.52.04.7l3.76 3.14c.22.18.52.14.68-.08l5.2-7.32 1.16.98c.22.18.54.14.7-.1l5.04-7.32c-1.36-.84-2.62-1.86-3.7-3.02zm-2.54 20.9c-.26-.1-.38-.4-.26-.64l7.62-16.64c1.4.72 2.92 1.26 4.5 1.56l-2.24 8.6c-.06.26-.36.42-.62.32l-1.42-.52-2.38 8.66c-.08.26-.36.42-.62.32l-4.6-1.68zm13.12-15.5-1.48 18.24c-.02.28.2.52.46.52h4.9c.28 0 .5-.24.46-.52l-.72-8.94h1.5c.28 0 .5-.24.48-.52l-.84-8.84c-.86.14-1.74.2-2.64.2-.72 0-1.42-.04-2.12-.14m17.64-49.38c.12-.26 0-.54-.26-.64l-4.6-1.68c-.26-.1-.54.06-.62.32l-2.38 8.66-1.42-.52c-.26-.1-.54.06-.62.32l-2.24 8.6c1.6.32 3.1.86 4.5 1.56zm10.04 7.26-12.86 13.02a17.5 17.5 0 0 0-3.7-3.02l5.04-7.32c.16-.22.48-.28.7-.1l1.16.98 5.2-7.32c.16-.22.48-.26.68-.08l3.76 3.14c.22.18.22.5.04.7zm6.96 10.24c.26-.12.34-.42.2-.66l-2.46-4.24a.49.49 0 0 0-.68-.16l-7.38 5.1-.76-1.3c-.14-.24-.46-.32-.68-.14l-7.24 5.16c1 1.24 1.82 2.62 2.46 4.1l16.52-7.84zm2.6 6.64.84 4.82c.04.28-.14.52-.42.56l-18.22 1.7c-.08-1.64-.4-3.2-.9-4.68l8.56-2.36c.26-.08.54.1.58.38l.26 1.48 8.68-2.26c.26-.06.54.1.58.38zm-.82 17.7c.26.06.54-.1.58-.38l.84-4.82a.483.483 0 0 0-.42-.56l-8.94-.84.26-1.48a.483.483 0 0 0-.42-.56l-8.86-.72c-.04 1.64-.3 3.22-.76 4.72l17.7 4.62zm-4.72 11c-.14.24-.46.3-.68.16l-15.06-10.4c.96-1.26 1.74-2.66 2.32-4.16l8.08 3.7c.26.12.36.42.22.66l-.76 1.3 8.12 3.84c.24.12.34.42.2.66zm-20.14-6.14 10.58 14.92c.16.22.48.26.68.08l3.74-3.14c.22-.18.22-.5.04-.7l-6.3-6.38 1.16-.96c.22-.18.22-.5.02-.7l-6.34-6.24c-1.06 1.2-2.26 2.26-3.6 3.12zm-.1 20.32c-.26.1-.54-.06-.62-.32l-4.84-17.64c1.58-.36 3.08-.94 4.46-1.7l3.82 8.02c.12.26 0 .56-.26.64l-1.42.52 3.74 8.16c.12.26 0 .54-.26.64l-4.6 1.68z" clip-rule="evenodd"/></g><defs><clipPath id="a"><path fill="#fff" d="M0 0h72v72H0z"/></clipPath></defs></svg>
